local/share/icons/dracula-icons-main/24/actions/auto-scale-x.svg

<?xml version="1.0" encoding="UTF-8"?>
<svg xmlns="http://www.w3.org/2000/svg" xmlns:xlink="http://www.w3.org/1999/xlink" width="24" height="24" viewBox="0 0 24 24">
<path fill-rule="nonzero" fill="rgb(100%, 100%, 100%)" fill-opacity="1" d="M 20 12 L 18 10 L 18 14 Z M 17 9 C 17 7.890625 16.109375 7 15 7 L 9 7 C 7.890625 7 7 7.890625 7 9 L 7 15 C 7 16.109375 7.890625 17 9 17 L 15 17 C 16.109375 17 17 16.109375 17 15 Z M 16 9 L 16 15 C 16 15.554688 15.554688 16 15 16 L 9 16 C 8.445312 16 8 15.554688 8 15 L 8 9 C 8 8.445312 8.445312 8 9 8 L 15 8 C 15.554688 8 16 8.445312 16 9 Z M 6 10 L 4 12 L 6 14 Z M 6 10 "/>
</svg>

<svg width="24" height="24" version="1.1" viewBox="0 0 24 24" xmlns="http://www.w3.org/2000/svg">
 <defs>
  <style id="current-color-scheme" type="text/css">.ColorScheme-Text {
        color:#FFFFFF;
      }</style>
 </defs>
 <path class="ColorScheme-Text" d="m20 12-2-2v4zm-3-3c0-1.108-0.892-2-2-2h-6c-1.108 0-2 0.892-2 2v6c0 1.108 0.892 2 2 2h6c1.108 0 2-0.892 2-2zm-1 0v6c0 0.554-0.446 1-1 1h-6c-0.554 0-1-0.446-1-1v-6c0-0.554 0.446-1 1-1h6c0.554 0 1 0.446 1 1zm-10 1-2 2 2 2z" fill="currentColor"/>
</svg>
